X: 85
T: Pilgrim, The
T: Lord Foppington
O: 1701
M: 6/8
L: 1/8
Z: Barnes I pg 97
K: D
A | "D"FAF D2D | A2d d2e | fgf fga | "A"e3 A2A |
"D" FAF D2D | A2d d2e | fgf "A"fge | "D"d3 d2 :|
e | "A"eAe eae | eAe eae | "D"f^ga "E"a2g | "A"a3 a2a |
"D"aff fdd | dAA AFA | "G"def "A"f>ed | "D"d3 d2 :|

